// NOTE: Shader automatically converted from Godot Engine 4.3.stable.mono's StandardMaterial3D.

shader_type spatial;
render_mode blend_mix, depth_draw_opaque, cull_back, diffuse_burley, specular_schlick_ggx;

uniform vec4 albedo : source_color;
uniform sampler2D texture_albedo : source_color, filter_linear_mipmap, repeat_enable;
uniform float point_size : hint_range(0.1, 128.0, 0.1);

uniform float roughness : hint_range(0.0, 1.0);
uniform sampler2D texture_metallic : hint_default_white, filter_linear_mipmap, repeat_enable;
uniform vec4 metallic_texture_channel;
uniform sampler2D texture_roughness : hint_roughness_r, filter_linear_mipmap, repeat_enable;

uniform float specular : hint_range(0.0, 1.0, 0.01);
uniform float metallic : hint_range(0.0, 1.0, 0.01);

uniform vec3 uv1_scale;
uniform vec3 uv1_offset;
uniform vec3 uv2_scale;
uniform vec3 uv2_offset;

uniform vec3 Albedo: source_color = vec3(1, 1, 1);
uniform float Roughness : hint_range(0.0, 1.0) = 1.0;
uniform float Metallicness : hint_range(0.0, 1.0) = 0.0;

void vertex() {
	UV = UV * uv1_scale.xy + uv1_offset.xy;
}

void fragment()
{
	ALBEDO = Albedo;
	ROUGHNESS = Roughness;
	METALLIC = Metallicness;
}

float DistributionGGX(float cos_theta_m, float alpha)
{
	float alpha2 = alpha * alpha;
	float d = 1.0 + (alpha2 - 1.0) * cos_theta_m * cos_theta_m;
	return alpha2 / (PI * d * d);
}

float GeometryGGX(float NdotL, float NdotV, float alpha)
{
	return 0.5 / mix(2.0 * NdotL * NdotV, NdotL + NdotV, alpha);
}

vec3 SchlickBaseReflectivity(float metallics, float speculars, vec3 albedos)
{
	float dielectric = 0.04 * speculars * speculars;
	return mix(vec3(dielectric), albedos, vec3(metallics));
}
	
float SchlickFresnel(float u)
{
	float m = 1.0 - u;
	float m2 = m * m;
	return m2 * m2 * m;
}

void light()
{
	// Calculate some vectors.
	vec3 lightColor = LIGHT_COLOR / PI;
	
	vec3 half = normalize(VIEW + LIGHT);
	
	float NdotL = max(dot(NORMAL, LIGHT), 0.0);
	float NdotV = max(dot(NORMAL, VIEW), 0.0);
	float NdotH = max(dot(NORMAL, half), 0.0);
	float LdotH = max(dot(LIGHT, half), 0.0);
	
	// Diffuse light (Lambert).
	DIFFUSE_LIGHT += clamp(dot(NORMAL, LIGHT), 0.0, 1.0) * ATTENUATION * lightColor;
	
	// Specular light (Schlick-GGX).
	float ggxAlpha = ROUGHNESS * ROUGHNESS;
	float D = DistributionGGX(NdotH, ggxAlpha);
	float G = GeometryGGX(NdotL, NdotV, ggxAlpha);
	
	vec3 f0 = SchlickBaseReflectivity(METALLIC, SPECULAR_AMOUNT, ALBEDO);
	float LdotH5 = SchlickFresnel(LdotH);
	float f90 = clamp(50.0 * f0.g, 0.0, 1.0);
	vec3 F = f0 + (f90 - f0) * LdotH5;
	
	vec3 specularBRDF = max(NdotL * D * G * F, 0.0);
	SPECULAR_LIGHT += specularBRDF * LIGHT_COLOR * ATTENUATION;
}
